X:1
T:Ich Halte Treulich Still, SMD
T:Attributed to Johann Sebastian Bach, 1736
T:Ich Halte Treulich Still, SMD
T:Public Domain
C:Attributed to Johann Sebastian Bach, 1736
Z:Public Domain
%%score ( 1 2 ) ( 3 4 )
L:1/8
M:4/4
K:D
V:1 treble 
V:2 treble 
V:3 bass 
V:4 bass 
V:1
 [DA]2 | [A,F]2 (ED) [DA]2 (BA) | (D3 C D2) [Fd]2 | E2 (FA) (GF)(ED) | D6 [CE]2 | %5
 [DF]2 E2 [DF]2 [FB]2 | [E^G]2 [EA]2 [EB]2 [Ge]2 | [Ec]2 (BA) [FB]2 (A^G) | (E2 D2 E2) [CA]2 | %9
 [DG]2 [CF]2 [DG]2 [EA]2 | [DF]6 [EF]2 | [DB]2 [Ec]2 [DF]2 [F^A]2 | (D2 E2 F2) [Dd]2 | %13
 E2 z B [EA]2 [CG]2 | [DF]2 [CG]2 [DA]2 [Fd]2 | E2 (FA) (GF)(ED) | [A,D]6 |] %17
V:2
 x2 | x2 B,2 x D2 x | A6 x2 | E2 D2 D2 C2 | D6 x2 | x2 E2 x4 | x8 | x2 E2 x E2 x | A6 x2 | x8 | %10
 x8 | x8 | B6 x2 | A3 D2 x3 | x8 | E2 D2 D2 C2 | x6 |] %17
V:3
 [D,F,]2 | D,2 [B,,F,]2 [F,,A,]2 [G,,G,]2 | (G,F, [E,G,]2 [F,A,]2) (A,B,) | %3
 [A,,C]2 (A,F,) [G,,E,]2 [A,,A,]2 | z2 A,,2 D,,2 [A,,A,]2 | [D,A,]2 [C,A,]2 [D,A,]2 [B,,D]2 | %6
 [E,B,]2 [A,C]2 [^G,B,]2 [E,B,]2 | A,2 [C,E]2 [D,D]2 [E,B,]2 | %8
 ([A,,C]2 [B,,B,]2 [C,A,]2) [A,,E,]2 | [B,,G,]2 [A,,A,]2 [B,,G,]2 [C,E,]2 | %10
 (D,2 E,2 D,2) [C,^A,]2 | [B,,B,]2 [E,G,]2 [F,B,]2 [F,,C]2 | (B,,2 C,2 D,2) [B,,F,]2 | %13
 [C,A,]2 [B,,F,]2 [C,E,]2 [A,,A,]2 | [D,A,]2 [E,G,]2 F,2 (A,B,) | [A,,C]2 A,F, [G,,E,]2 [A,,A,]2 | %16
 [D,F,]6 |] %17
V:4
 x2 | D,2 x6 | D,2 x3 D,2 x | x2 D,2 x4 | [F,A,]6 x2 | x8 | x8 | A,2 x6 | x8 | x8 | ^A,6 x2 | x8 | %12
 B,6 x2 | x8 | x4 F,2 D,2 | x2 D,2 x4 | x6 |] %17

